docs/img/icons/location.svg

<svg width="15" height="22" viewBox="0 0 15 22" fill="none" xmlns="http://www.w3.org/2000/svg">
<g clip-path="url(#clip0_1_89)">
<path d="M7.5 10.6941C9.22589 10.6941 10.625 9.3659 10.625 7.72753C10.625 6.08915 9.22589 4.76099 7.5 4.76099C5.77411 4.76099 4.375 6.08915 4.375 7.72753C4.375 9.3659 5.77411 10.6941 7.5 10.6941Z" stroke="white" stroke-width="1.125" stroke-linecap="round" stroke-linejoin="round"/>
<path fill-rule="evenodd" clip-rule="evenodd" d="M7.5 1.5625C3.51759 1.5625 0.137254 5.65416 2.17424 10.5333C3.25874 13.131 4.70885 15.9231 5.89226 18.0724C6.48313 19.1456 7.00582 20.0554 7.3806 20.6966C7.42227 20.7679 7.46211 20.8359 7.5 20.9004C7.5379 20.8359 7.57774 20.7679 7.6194 20.6966C7.99419 20.0554 8.51687 19.1456 9.10775 18.0724C10.2912 15.9231 11.7413 13.131 12.8258 10.5333C14.8628 5.65416 11.4824 1.5625 7.5 1.5625ZM7.5 22C7.01955 22.2925 7.01952 22.2925 7.01947 22.2924L7.00843 22.2742L6.97683 22.2219C6.94914 22.1761 6.90842 22.1084 6.8559 22.0205C6.75088 21.8447 6.59869 21.5883 6.40934 21.2643C6.03069 20.6165 5.50313 19.6982 4.90677 18.6151C3.71571 16.4519 2.2434 13.619 1.13608 10.9667C-1.21057 5.34584 2.71515 0.4375 7.5 0.4375C12.2849 0.4375 16.2106 5.34584 13.8639 10.9667C12.7566 13.619 11.2843 16.4519 10.0932 18.6151C9.49688 19.6982 8.96932 20.6165 8.59067 21.2643C8.40132 21.5883 8.24913 21.8447 8.1441 22.0205C8.09159 22.1084 8.05087 22.1761 8.02318 22.2219L7.99157 22.2742L7.9807 22.2921C7.98065 22.2922 7.98046 22.2925 7.5 22ZM7.5 22L7.9807 22.2921C7.87862 22.4598 7.69629 22.5625 7.5 22.5625C7.30372 22.5625 7.12155 22.4601 7.01947 22.2924L7.5 22Z" fill="white"/>
</g>
<defs>
<clipPath id="clip0_1_89">
<rect width="15" height="22" fill="white"/>
</clipPath>
</defs>
</svg>

<svg width="15" height="22" fill="none" xmlns="http://www.w3.org/2000/svg"><g clip-path="url(#clip0_1_89)"><path d="M7.5 10.694c1.726 0 3.125-1.328 3.125-2.966 0-1.639-1.4-2.967-3.125-2.967-1.726 0-3.125 1.328-3.125 2.967 0 1.638 1.4 2.966 3.125 2.966z" stroke="#fff" stroke-width="1.125" stroke-linecap="round" stroke-linejoin="round"/><path fill-rule="evenodd" clip-rule="evenodd" d="M7.5 1.563c-3.982 0-7.363 4.091-5.326 8.97 1.085 2.598 2.535 5.39 3.718 7.54A118.862 118.862 0 007.5 20.9l.12-.203c.374-.642.897-1.551 1.488-2.625 1.183-2.149 2.633-4.941 3.718-7.539 2.037-4.879-1.344-8.97-5.326-8.97zM7.5 22l-.48.292-.012-.018-.031-.052a91.703 91.703 0 01-.567-.958 113.74 113.74 0 01-1.503-2.649c-1.191-2.163-2.664-4.996-3.77-7.648C-1.212 5.346 2.714.437 7.5.437s8.71 4.909 6.364 10.53c-1.107 2.652-2.58 5.485-3.77 7.648a119.928 119.928 0 01-2.07 3.607l-.032.052-.011.018L7.5 22zm0 0l.48.292a.563.563 0 01-.96 0L7.5 22z" fill="#fff"/></g><defs><clipPath id="clip0_1_89"><path fill="#fff" d="M0 0h15v22H0z"/></clipPath></defs></svg>
